X: 15248
T: Girl Of The House, The
R: jig
M: 6/8
K: Dmixolydian
|:AG|(3FGA D DAD|A3 GEA|D3 AGE|(3FGA D DAG|
F3 G3|A3 (3Bcd e|dcA GEA|D3 D2:|
|:AB|cAA AGF|G3 GFG|AdB cAG|Ad^c d2e|
(3gfe d cAG|FDF GEA|dcA GEA|D3 D2:|

